X:1
T:Title
%%score ( 1 2 ) { 3 | 4 }
L:1/8
Q:1/4=96
M:4/4
K:F
V:1 treble nm="Grand Piano, Soprano"
V:2 treble 
V:3 bass nm="Choir Pad, Good People, Give Ear"
V:4 bass 
V:1
 z4 z2 A2 | D2 EA, D2 EF | G2 AB d2 cB | A2 GF E2 F2 | z4 z2[Q:1/4=112] G2 | %5
 [FA]2 [FA][FB] [Ec]2 [EA][EG] | z4 z2 .F2 | D2 D[DE] [DF][EG][FA][GB] | [EG]6 [Ec]2 | %9
 [Ff]2 [Gc][GB] [FA]2 Bc | [Fd]2 [GB][FA] [EG]2 AB | [Fc]2 [EA][EG] FE[DG][EA] | F8 |] %13
V:2
 x8 | x8 | x8 | x8 | D3 C D2 cB | x8 | [DF]2 [DF][DG] [^CA]2 C-[CE] | x8 | x8 | z4 z2 F2 | %10
 z4 z2 E2 | x8 | x8 |] %13
V:3
 z4 z2 A,2 | D,2 E,A,, D,2 E,F, | G,2 A,B, D2 CB, | A,2 G,F, E,2 F,2 | D,3 C, D,2[K:treble] C2 | %5
 C2 DD G,2 C[K:bass]B, | A,2 B,B, E,2 A,G, | F,2 B,B, A,2[K:treble] DD | C6 CB, | %9
 C2 CC C2[K:bass] B,A, | B,2 DD G,2 C2 | C2 CB, A,2 B,B, | A,8 |] %13
V:4
 z8 | z8 | z8 | z8 | z4 z2 E,2 | F,2 D,D, C,2 C,C, | D,2 B,,B,, A,,2 A,,2 | %7
 B,,2 G,,G,, D,2 B,,B,, | C,6 z2 | A,2 E,E, F,E,D,C, | B,,2 G,,G,, C,D,C,A,, | %11
 A,,2 C,C, D,C,B,,C, | F,8 |] %13

